X: 1
T: Old Southern (shottish)
O: Sweden
R: shottish
Z: 2017 John Chambers <jc:trillian.mit.edu>
P: (ABAC)xN+A
M: C
L: 1/8
K: G
"A"|:\
"G"B>A G>F G2 G2 | B>d b>a g2 g2 | "D7"f2 A>B c>B c>A |\
[1 "G"G>A B>c "D7"d2 d2 :|[2 "G"G2 B2 G2 Hz2 |]
K: D
"B"|:\
"A"A2 A2 "A7"G2 G2 | "D"F>A d>f a2 a2 | "Em"b2 e>f "A7"g>e c>e |\
[1 "D(G)"d>c d>B "A7"A2 A2 :|[2 "D"d2 f2 d2 "d.C."z2 |]
[K:C]
|:\
"C"C>E G>c e2 e2 | E>G c>e g2 g2 | "F"a2 a2 "G7"B2 B2 |\
[1 "C"c>B c>A "G7"G>F E>D :|[2 "C"c2 e2 c2 z2 |]
